dist/ueditor-plus/themes/default/exts/doc.svg

<svg xmlns="http://www.w3.org/2000/svg" width="85" height="100" viewBox="0 0 85 100">
    <defs>
        <linearGradient id="doc-a" x1="50%" x2="50%" y1="0%" y2="100%">
            <stop offset="0%" stop-color="#1D70CA"/>
            <stop offset="100%" stop-color="#41A5EE"/>
        </linearGradient>
    </defs>
    <g fill="none" fill-rule="evenodd">
        <path fill="url(#doc-a)"
              d="M6,0 L62.3333333,0 L62.3333333,0 L85,22.8571429 L85,94 C85,97.3137085 82.3137085,100 79,100 L6,100 C2.6862915,100 4.05812251e-16,97.3137085 0,94 L0,6 C-4.05812251e-16,2.6862915 2.6862915,6.08718376e-16 6,0 Z"/>
        <path fill="#FFF"
              d="M62.3333333,0 L85,22.5352113 L68.3333333,22.5352113 C65.0196248,22.5352113 62.3333333,19.8489198 62.3333333,16.5352113 L62.3333333,0 L62.3333333,0 Z"
              opacity=".5"/>
        <rect width="42.5" height="42.254" y="30.986" fill="#1B61CA" rx="2"/>
        <rect width="22.667" height="2.817" x="51" y="33.803" fill="#FFF" opacity=".5"/>
        <rect width="22.667" height="2.817" x="51" y="45.07" fill="#FFF" opacity=".5"/>
        <rect width="22.667" height="2.817" x="51" y="56.338" fill="#FFF" opacity=".5"/>
        <rect width="22.667" height="2.817" x="51" y="67.606" fill="#FFF" opacity=".5"/>
        <path fill="#FFF" fill-rule="nonzero"
              d="M25.7935088,62.8642557 C27.1407465,65.0073347 30.3730311,64.6213304 31.1777196,62.2212652 L36.8443863,45.3198567 C37.3710779,43.7489455 36.5245707,42.0485025 34.9536595,41.5218109 C33.3827483,40.9951193 31.6823053,41.8416265 31.1556137,43.4125377 L27.5023119,54.3088809 L23.7898245,48.4033499 C22.6135444,46.5322167 19.8864556,46.5322167 18.7101755,48.4033499 L14.9976881,54.3088809 L11.3443863,43.4125377 C10.8176947,41.8416265 9.11725166,40.9951193 7.54634048,41.5218109 C5.97542929,42.0485025 5.12892207,43.7489455 5.65561368,45.3198567 L11.3222804,62.2212652 C12.1269689,64.6213304 15.3592535,65.0073347 16.7064912,62.8642557 L21.25,55.6368017 L25.7935088,62.8642557 Z"/>
    </g>
</svg>

<svg xmlns="http://www.w3.org/2000/svg" width="85" height="100"><defs><linearGradient id="a" x1="50%" x2="50%" y1="0%" y2="100%"><stop offset="0%" stop-color="#1D70CA"/><stop offset="100%" stop-color="#41A5EE"/></linearGradient></defs><g fill="none" fill-rule="evenodd"><path fill="url(#a)" d="M6 0h56.333L85 22.857V94a6 6 0 0 1-6 6H6a6 6 0 0 1-6-6V6a6 6 0 0 1 6-6Z"/><path fill="#FFF" d="M62.333 0 85 22.535H68.333a6 6 0 0 1-6-6V0Z" opacity=".5"/><rect width="42.5" height="42.254" y="30.986" fill="#1B61CA" rx="2"/><path fill="#FFF" d="M51 33.803h22.667v2.817H51zm0 11.267h22.667v2.817H51zm0 11.268h22.667v2.817H51zm0 11.268h22.667v2.817H51z" opacity=".5"/><path fill="#FFF" fill-rule="nonzero" d="M25.794 62.864c1.347 2.143 4.579 1.757 5.384-.643l5.666-16.901a3 3 0 1 0-5.688-1.907l-3.654 10.896-3.712-5.906c-1.176-1.87-3.904-1.87-5.08 0l-3.712 5.906-3.654-10.896a3 3 0 1 0-5.688 1.907l5.666 16.901c.805 2.4 4.037 2.786 5.384.643l4.544-7.227 4.544 7.227Z"/></g></svg>
